!!!COM: Corelli, Arcangelo
!!!OTL: Sonate a tre [in c]
!!!XEN: Trio Sonata Opus 1, No. 8
!!!OPS: Opus 1
!!!ONM: No. 8
!!!OMV: Movement 2.
!!!YEC: Copyright 1994, Center for Computer Assisted Research in the Humanities
!!!YEM: Rights to all derivative electronic formats reserved.
!!!YEM: Refer to licensing agreement for further details.
!! For the following instrumentation: Violino I & II, Violone/Archlute,
!!    and Organo.
!! Allegro.
**kern	**kern	**kern	**kern
*ICklav	*ICstr	*ICstr	*ICstr
*Iorgan	*Icello	*Ivioln	*Ivioln
*	*Iarchl	*	*
!Organo	!Violone	!Violin 2	!Violin 1
!	! or	!	!
!	!Archlute	!	!
*>[A,A,B,B]	*>[A,A,B,B]	*>[A,A,B,B]	*>[A,A,B,B]
*>A	*>A	*>A	*>A
*clefF4	*clefF4	*clefG2	*clefG2
*k[b-e-]	*k[b-e-]	*k[b-e-]	*k[b-e-]
*c:	*c:	*c:	*c:
*M4/4	*M4/4	*M4/4	*M4/4
*MM66	*MM66	*MM66	*MM66
=1-	=1-	=1-	=1-
8C\L	8C\L	4ee-\	4gg\
8D\	8D\	.	.
8E-\	8E-\	16r	16r
.	.	16ee-\LL	16gg\LL
8F\J	8F\J	16dd\	16ff\
.	.	16cc\JJ	16ee-\JJ
8G\L	8G\L	8b\L	8dd\L
8F\	8F\	8cc\J	8ee-\J
8G\	8G\	8.cc\L	8.dd\L
8GG\J	8GG\J	.	.
.	.	16b\Jk	16dd\Jk
=2	=2	=2	=2
8C\L	8C\L	8cc\L	8cc\
8c\	8c\	8ee-\	4gg\
8B\	8B\	8dd\	.
8G\J	8G\J	8b\J	16gg\LL
.	.	.	16ff\JJ
8c\L	8c\L	8cc/L	8ee-\L
16C\L	16C\L	8e-/J	8g\J
16BB-\JJ	16BB-\JJ	.	.
4AA-/	4AA-/	8.f/L	8.cc\L
.	.	16g/Jk	16b\Jk
=3	=3	=3	=3
4GG/	4GG/	4g/	4b\
4r	4r	4r	4r
8EE-/L	8EE-/L	4.ee-\	4.gg\
8FF/	8FF/	.	.
8GG/	8GG/	.	.
8AA/J	8AA/J	8ee-\	8gg\
=4	=4	=4	=4
4BB-/	8BB-/L	4.dd\	4.ff\
.	8C/	.	.
4BBn/	8D/	.	.
.	8BBn/J	8dd\	8ff\
8C\L	8C\L	4.cc\	4.ee-\
8D\	8D\	.	.
8E-\	8E-\	.	.
8F\J	8F\J	8cc\	8ee-\
=5	=5	=5	=5
4G\	8G\L	2b\	2dd\
.	8F\	.	.
4D\	8E-\	.	.
.	8D\J	.	.
2C/	8C\L	2cc\	2ee-\
.	8c\	.	.
.	8B-\	.	.
.	8A-\J	.	.
=6	=6	=6	=6
2G\	8G\L	2b-\	2ee\
.	8A-\	.	.
.	8B-\	.	.
.	8G\J	.	.
2F\	8F\L	2a-/	2ff\
.	8G\	.	.
.	8A-\	.	.
.	8F\J	.	.
=7	=7	=7	=7
4E\	8E\L	2cc\	2gg\
.	8F\	.	.
4C/	8G\	.	.
.	8E\J	.	.
4F\	4F\	4cc\	4aa-\
4G\	4G\	4b\	[4gg\
=8	=8	=8	=8
2A-\	2A-\	2cc\	4gg\]
.	.	.	4ff\
2G\	2G\	2b\	2gg\
=9||	=9||	=9||	=9||
*>B	*>B	*>B	*>B
4G\	4G\	2r	16gg\LL
.	.	.	16dd\
.	.	.	16gg\
.	.	.	16aa-\JJ
4r	4r	.	16gg\LL
.	.	.	16ff\
.	.	.	16ee-\
.	.	.	16dd\JJ
4C/	4C/	16cc\LL	4ee-\
.	.	16g\	.
.	.	16cc\	.
.	.	16dd\JJ	.
4r	4r	16cc/LL	4r
.	.	16b-/	.
.	.	16a-/	.
.	.	16g/JJ	.
=10	=10	=10	=10
4F\	4F\	4a-/	16ff\LL
.	.	.	16cc\
.	.	.	16ff\
.	.	.	16gg\JJ
4r	4r	4r	16ff\LL
.	.	.	16ee-\
.	.	.	16dd\
.	.	.	16cc\JJ
4BB-/	4BB-/	16b-/LL	4dd\
.	.	16f/	.
.	.	16b-/	.
.	.	16cc/JJ	.
4r	4r	16b-/LL	4r
.	.	16a-/	.
.	.	16g/	.
.	.	16f/JJ	.
=11	=11	=11	=11
4E-\	4E-\	4g/	16bb-\LL
.	.	.	16aa-\
.	.	.	16gg\
.	.	.	16ff\JJ
4r	4r	4r	16ee-\LL
.	.	.	16dd\
.	.	.	16cc\
.	.	.	16b-\JJ
4.GG/	4.GG/	16ee-\LL	16gg\LL
.	.	16dd\	16ff\
.	.	16cc\	16ee-\
.	.	16b-\JJ	16dd\JJ
.	.	16a-/LL	16cc/LL
.	.	16g/	16b-/
8AA-/	8AA-/	16f/	16a-/
.	.	16e-/JJ	16g/JJ
=12	=12	=12	=12
8BB-/L	8BB-/L	8d/L	8f/L
8AA-/J	8AA-/J	8e-/J	8g/J
4BB-/	4BB-/	8.e-/L	8.f/L
.	.	16d/Jk	16f/Jk
2E-\	2E-\	2e-/	2e-/
=13	=13	=13	=13
4E-\	4E-\	2r	(16bb-\LL
.	.	.	16aa-\)
.	.	.	(16gg\
.	.	.	16ff\JJ)
4r	4r	.	(16ee-\LL
.	.	.	16dd\)
.	.	.	(16cc\
.	.	.	16b-\JJ)
4.GG/	4.GG/	(16ee-\LL	(16gg\LL
.	.	16dd\)	16ff\)
.	.	(16cc\	(16ee-\
.	.	16b-\JJ)	16dd\JJ)
.	.	(16a-/LL	(16cc/LL
.	.	16g/)	16b-/)
8AA-/	8AA-/	(16f/	(16a-/
.	.	16e-/JJ)	16g/JJ)
=14	=14	=14	=14
8BB-/L	8BB-/L	8d/L	8f/L
8AA-/J	8AA-/J	8e-/J	8g/J
4BB-/	4BB-/	8.e-/L	8.f/L
.	.	16d/Jk	16f/Jk
2E-\	2E-\	2e-/	2e-/
=15	=15	=15	=15
2E-\	2E-\	2r	16ee-\LL
.	.	.	16dd\
.	.	.	16ee-\
.	.	.	16ff\JJ
.	.	.	16gg\LL
.	.	.	16ff\
.	.	.	16gg\
.	.	.	16aa\JJ
4D\	4D\	16b-\LL	4bb-\
.	.	16a\	.
.	.	16b-\	.
.	.	16cc\JJ	.
4B-\	4B-\	16dd\LL	4r
.	.	16cc\	.
.	.	16dd\	.
.	.	16ee\JJ	.
=16	=16	=16	=16
4A\	4A\	4ff\	16ff\LL
.	.	.	16ee\
.	.	.	16ff\
.	.	.	16gg\JJ
4F\	4F\	4r	16aa\LL
.	.	.	16gg\
.	.	.	16aa\
.	.	.	16bb\JJ
4E-\	4E-\	16cc\LL	4ccc\
.	.	16b\	.
.	.	16cc\	.
.	.	16dd\JJ	.
4C/	4C/	16ee-\LL	4r
.	.	16dd\	.
.	.	16ee-\	.
.	.	16ff\JJ	.
=17	=17	=17	=17
2BB/	2BB/	4gg\	16gg\LL
.	.	.	16dd\
.	.	.	16gg\
.	.	.	16aa-\JJ
.	.	4r	16gg\LL
.	.	.	16ff\
.	.	.	16ee-\
.	.	.	16dd\JJ
2C/	2C/	16cc\LL	4.ee-\
.	.	16g\	.
.	.	16cc\	.
.	.	16dd\JJ	.
.	.	16cc/LL	.
.	.	16b-/	.
.	.	16a-/	8een\
.	.	16g/JJ	.
=18	=18	=18	=18
[2F\	[2F\	4.a-/	16ff\LL
.	.	.	16gg\
.	.	.	16aa-\
.	.	.	16gg\JJ
.	.	.	16ff\LL
.	.	.	16ee-\
.	.	8f/	16dd\
.	.	.	16cc\JJ
8F\L]	8F\L]	8.g/L	8b\L
16E-\L	16E-\L	.	8cc\J
16F\JJ	16F\JJ	16a-/Jk	.
8G/L	8G/L	8.d/L	8.cc\L
8GG/J	8GG/J	.	.
.	.	16d/Jk	16b\Jk
=19	=19	=19	=19
4C/	4C/	4c/	(16cc\LL
.	.	.	16dd\)
.	.	.	(16ee-\
.	.	.	16dd\JJ)
4E\	4E\	4r	(16cc/LL
.	.	.	16b-/)
.	.	.	(16a-/
.	.	.	16g/JJ)
[2F\	[2F\	(16ff\LL	4.a-/
.	.	16gg\)	.
.	.	(16aa-\	.
.	.	16gg\JJ)	.
.	.	(16ff\LL	.
.	.	16ee-\)	.
.	.	(16dd\	8f/
.	.	16cc\JJ)	.
=20	=20	=20	=20
8F\L]	8F\L]	8b\L	8.g/L
16E-\L	16E-\L	8cc\J	.
16F\JJ	16F\JJ	.	16a-/Jk
8G/L	8G/L	8.cc\L	8.d/L
8GG/J	8GG/J	.	.
.	.	16b\Jk	16d/Jk
2C/	2C/	2cc\	2c/
==	==	==	==
*-	*-	*-	*-
!!!CDT: 1653/2/17/-1713/1/8
!!!OCY: Italia
!!!ODE: Queen Christina Alexandra of Sweden
!!!ODT: 1681//
!!!OPC: Roma; Rome
!!!AGN: trio sonata
!!!AST: baroque, chamber
!!!AMT: simple quadruple
!!!YOR1: J. Joachim & F. Chrysander (eds.) Les Oeuvre de Arcangelo Corelli
!!!YOR2: London: Augener & Co. 1871
!!!YOY: 1871
!!!AIN: archl cello organ violn
!!!EEV: 1.1
!!!RDT: 1993 August 31
!!!YER: 1994 December 14
!!!EMD: 1996 July 9
!!!YEN: United States of America
!!!EFL: 2/4
!!!ENC: Frances Bennion & Steven Rasmussen
!!!EED: W.B. Hewlett
!!!VTS: 2351799497
